X: 1865
T: Arlitrach
R: slip jig
M: 9/8
K: Amixolydian
c2A AcA AcA|c2A AcA BGB|c2A AcA AcA|BGB Baf gBB:|
c2e eaf ecA|c2A Aaf {f} gBB|c2e eae cAc|BGB Baf gBB:|

